X: 1
T: String Quartet in G major opus 1 no 4 mvt 3
C: Franz Joseph Haydn
%%abc-version 2.0
%%abcx-abcm2ps-target-version 5.9.1 (29 Sep 2008)
%%abc-creator hum2abc beta
%%abcx-conversion-date 2021/02/14 14:38:11
%%abc-copyright Copyright (c) 1994, 2000 Center for Computer Assisted Research in the Humanities
%%abc-edited-by Frances Bennion
%%abcx-initial-encoding-date 1997/04/15
%%gracespace 0 6 6
%%humdrum-veritas 368935388
%%humdrum-veritas-data 855750412
%%linebreak <none>
%%barnumbers 0
L: 1/16
M: 4/4
N: Derived from op01n4-03.krn
Q: "Adagio"
%%staves [1 2 3 4]
V: 1
V: 2
V: 3 clef=alto
V: 4 clef=bass
K: C
[V:1]z8 z6 c'g [I:setbarnb1]|
[V:2]z8 z6 z2 |
[V:3]z14 z2|
[V:4]z14 z2|
[V:1]g2g2 g2ag/f/ f4 e2fe/d/ |
[V:2]z8 z8 |
[V:3]z2e2 d2B2 z2c2 C2B2 |
[V:4]z2C2 B,2G,2 z2C2 C,2F,2 |
[V:1]c>eg>c' f4 e4 z4 |
[V:2]z8 C>EG>c F4 |
[V:3]c2c4 B2 c2C4 B,2 |
[V:4]E,2E2 D2G,2 C2E,2 D,2G,,2 |
[V:1]z2c2 c2c2 B3/c//d//c2 z4 |
[V:2]E4 z8 B,3/C//D//C2 |
[V:3]C4 z2G2 G2G4 G2 |
[V:4]C,4 z2E,2 F,2E,2 F,2E,2 |
[V:1]d3/e//f//e2 z4 g4 (3c'ba(3gfe |
[V:2]z4 D3/E//F//E2 z8 |
[V:3]G2G4 G2 z2C2 C2C2 |
[V:4]B,,2C,2 B,,2C,2 z2E,2 E,2E,2 |
[V:1](3deff4 ed e2g2 c'/g/e'/c'<g'f'//e'// |
[V:2]z8 z8 |
[V:3]z2B,2 B,2B,2 C4 z2c2 |
[V:4]z2D,2 G,2G,2 C,4 z2C,2 |
[V:1]e'2d'2 z4 z8 |
[V:2]z4 c/G/e/c<gf//e// e2d2 z4 |
[V:3]c2B2 z2C2 C2B,>G D>CB,3/A,/ |
[V:4]G,2G,,2 z2C,2 G,2G,,>G, D,>C,B,,3/A,,/ |
[V:1]g/^f/g/a/b2 z4 c'/b/a/b/a2 z4 |
[V:2]z4 G/^F/G/A/B2 z4 c/B/A/B/A2 |
[V:3]G,2G2 B2G2 A,2^F2 A2c2 |
[V:4]G,,2G,2 B,2G,2 A,,2^F,2 A,2C2 |
[V:1]d'/b/d'/b/d'2 z4 d'e2<e2 c'/b/c'/b/c'/b/ |
[V:2]z4 d/B/d/B/d2 z4 cEE2 |
[V:3]B,2G2 B2D2 C2c2 A2A2 |
[V:4]B,,2G,2 B,2B,,2 C,2C2 A,2A,2 |
[V:1]c'd2<d2 b/^a/b/a/b/a/ bc2<c2 =a/^g/a/^f/d/c/ |
[V:2]DA/^G/A/G/A/c/ BDD2 C=G/^F/G/F/G/B/ ACCA, |
[V:3]^F2F2 G2G2 E2E2 F2F2 |
[V:4]^F,2F,2 G,2G,2 E,2E,2 F,2F,2 |
[V:1]Bg^fe dcBA GcBe dgfc' |
[V:2]G,2>G2 ^FEDC B,A,G,C B,EDF |
[V:3]G4 z12 |
[V:4]G,4 z12 |
[V:1]be'd'g' g'g'2g' g'8- |
[V:2]GcBe db2a G2z6 |
[V:3]z8 zcBe dcBA |
[V:4]z8 zE,D,C B,E,D,C, |
[V:1]g'd'c'/b/a/g/ a4 b/d'/g'/d'/g'/d'/b/g/ a4 |
[V:2]z8 z8 |
[V:3]G2G4 ^F2 G2z2 G2F2 |
[V:4]B,,2C,2 D,2D,2 G,2z2 D,2D,2 |
[V:1]g2G4 ^F2 G4 z2gd |
[V:2]B/d/g/d/g/d/B/G/ A4 G4 z2z2 |
[V:3]G2B2 d2D2 G4 z2z2 |
[V:4]G,2B,2 D2D,2 G,2D,2 G,,2z2 |
[V:1]d2d2 d2ed/c/ c4 B2cB/A/ |
[V:2]z8 z8 |
[V:3]z2B2 A2^F2 z2G2 G,2F2 |
[V:4]z2G,2 ^F,2D,2 z2G,2 G,,2C,2 |
[V:1](3GBd(3gbd' d'2c'2 b4 z4 |
[V:2]z8 (3G,B,D(3GBd d2c2 |
[V:3]G2G4 ^F2 G2G4 F2 |
[V:4]B,,2G,,2 A,,2D,2 G,,2G,2 A,2D,2 |
[V:1]z2g4 gf/e/ c4 (3_bag(3d'c'b |
[V:2]B4 z4 z8 |
[V:3]G2B4 B2 c2c2 c2c2 |
[V:4]G,4 F,4 E,2E,2 E,2E,2 |
[V:1]c'8- c'8- |
[V:2]z4 G/F/G/A/_B2 A/G/A/B/c2 E/D/E/F/G2 |
[V:3]F4 z8 G/F/G/A/_B2 |
[V:4]F,2z2 E,2G,2 F,2A,2 C2C,2 |
[V:1]c'8 (3c'f'e'(3d'c'_b a2g2 |
[V:2]F/E/F/G/A2 G/F/G/A/_B2 A2z6 |
[V:3]A/G/A/_B/c2 E/D/E/F/G2 F2F4 E2 |
[V:4]F,2F,,2 z2C,2 F,2_B,2 C2C,2 |
[V:1]f4 z4 z8 |
[V:2](3cfe(3dc_B A2G2 F4 z4 |
[V:3]F2F,4 E,2 F,4 z4 |
[V:4]F,2_B,2 C2C,2 F,2C,2 F,,4 |
[V:1]a/g/a/_b/c'2 z4 a/g/a/b/c'2 z4 |
[V:2]z4 A/G/A/_B/c2 z4 ^F/G/A/B/c2 |
[V:3]z2c/_B/A/G/ ^F4 z2A/G/F/E/ D4 |
[V:4]z4 C/_B,/A,/G,/^F,2 z4 A,/G,/F,/E,/D,2 |
[V:1]c'_ee4 dc _B/A/B/c<dG/ A3B/c/ |
[V:2]z8 z8 |
[V:3]Acc4 _BA G6 ^F2 |
[V:4]z2^F,2 F,2F,2 G,2_B,,2 C,2D,2 |
[V:1]_B/A/G/A/G2 [g4G,4B4D4] z8 |
[V:2]z8 [G,4_B4D4g4] z4 |
[V:3]G4 z4 >>_E4 D>C_B,3/A,/ |
[V:4]G,4 z4 >>_E,4 D,>C,_B,,3/A,,/ |
[V:1]g/^f/g/a/_b2 z4 g/f/g/a/b2 z4 |
[V:2]z4 G/^F/G/A/_B2 z4 E/=F/G/A/B2 |
[V:3]G,4 _B/A/G/F/E2 z4 G/F/E/D/C2 |
[V:4]G,,4 _B,/A,/G,/F,/E,2 z4 G,/F,/E,/D,/C,2 |
[V:1]_bdd4 c_B A/G/A/B<cF/ G3A/B/ |
[V:2]z8 z8 |
[V:3]G_BB4 AG F6 E2 |
[V:4]z2E,2 E,2E,2 F,2A,,2 _B,,2C,2 |
[V:1]A/G/F/G/F2 [a4F4c4] z8 |
[V:2]z8 [c4a4F4] z4 |
[V:3]F4 z4 >>D4 C>_B,A,3/G,/ |
[V:4]F,2F,,2 z4 >>D,4 C,>_B,,A,,3/G,,/ |
[V:1]a2a4 ac' c'gg4 f/e/d/c/ |
[V:2]z8 z8 |
[V:3]F,2c2 c2d2 G2c2 c2c2 |
[V:4]F,,2F,2 F,2F,2 E,2E,2 E,2E,2 |
[V:1]f2f4 (3agf (3efe(3gag (3c'ba(3gfe |
[V:2]z8 z8 |
[V:3]c2c2 B2B2 c4 z2c2 |
[V:4]D,2D,2 G,2G,2 C,4 z2C,2 |
[V:1]e2d2 z4 z6 c'g |
[V:2]z4 (3cBA(3GFE E2D2 z4 |
[V:3]c2B2 z2C2 C2B,2 z4 |
[V:4]G,2G,,2 z2C,2 G,2G,,2 z4 |
[V:1]g2g4 ag/f/ e2e4 fe/d/ |
[V:2]z6 c'g g2g2 g2ag/f/ |
[V:3]E4 z4 C4 z4 |
[V:4]C,4 z4 C,4 z4 |
[V:1]c2c4 ag/f/ e2e4 fe/d/ |
[V:2]e2e2 e2fe/d/ c2c2 c2dc/B/ |
[V:3]C4 z4 G4 z2G2 |
[V:4]C,4 z4 C,4 z2G,2 |
[V:1]c>eg>c' f4 e4 z4 |
[V:2]c4 z4 C>EG>c F4 |
[V:3]c2c4 B2 c2C4 B,2 |
[V:4]E,2E2 D2G,2 C2E,2 D,2G,,2 |
[V:1]z2c2 c2c2 B3/c//d//c2 z4 |
[V:2]E4 z8 B,3/C//D//C2 |
[V:3]C4 z2G2 G2G4 G2 |
[V:4]C,4 z2E,2 F,2E,2 F,2E,2 |
[V:1]d3/e//f//e2 z4 g4 (3c'ba(3gfe |
[V:2]z4 D3/E//F//E2 z8 |
[V:3]G2G4 G2 z2C2 C2C2 |
[V:4]B,,2C,2 B,,2C,2 z2E,2 E,2E,2 |
[V:1](3deff4 ed e2g2 c'/g/e'/c'<g'f'//e'// |
[V:2]z8 z8 |
[V:3]z2C2 B,2B,2 C4 z2c2 |
[V:4]z2D,2 G,2G,2 C,4 z2C,2 |
[V:1]e'2d'2 z4 z8 |
[V:2]z4 c/G/e/c<gf//e// e2d2 z4 |
[V:3]c2B2 z2C2 C2B,>A G>FE3/D/ |
[V:4]G,2G,,2 z2C,2 G,2G,,>A, G,>F,E,3/D,/ |
[V:1]c/B/c/d/e2 z4 f/e/d/e/d2 z4 |
[V:2]z4 C/B,/C/D/E2 z4 F/E/D/E/D2 |
[V:3]C2c2 e2c2 D2B2 d2F2 |
[V:4]C,2C2 E2C2 D,2B,2 D2F,2 |
[V:1]g/e/g/e/g2 z4 gA2<A2 f/e/f/e/f/e/ |
[V:2]z4 G/E/G/E/G2 z4 fAA2 |
[V:3]E2c2 e2E2 F2F2 D2d2 |
[V:4]E,2C2 E2E,2 F,2F,2 D,2D2 |
[V:1]fG2<G2 e/^d/e/d/e/d/ eF2<F2 =d/^c/d/B/G/F/ |
[V:2]Gd/^c/d/c/d/f/ eGG2 F=c/B/c/B/c/e/ dFFD |
[V:3]B2B2 c2c2 A2A2 B2B2 |
[V:4]B,2B,2 C2C2 A,2A,2 B,2B,2 |
[V:1]EcBA GFED CFEA GcBf |
[V:2]C2>c2 BAGF EDCF EAGB |
[V:3]c4 z12 |
[V:4]C4 z12 |
[V:1]eagc' c'c'2c' c'8- |
[V:2]cfea ge2e C2z6 |
[V:3]z8 zAGF EAGF |
[V:4]z8 zF,E,A, G,F,E,D, |
[V:1]c'gf/e/d/c/ d4 e/g/c'/g/c'/g/e/c/ d4 |
[V:2]z8 z8 |
[V:3]E2c4 B2 c2z2 c2B2 |
[V:4]E,2F,2 G,2G,,2 C,2z2 G,2G,,2 |
[V:1]c2c4 [G,2D2B2] [E4G,4c4] z2z2 |]
[V:2]E/G/c/G/c/G/E/C/ D4 C4 z2z2 |]
[V:3]c2C2 G2G,2 C2G,2 C,2z2 |]
[V:4]C,2E,2 G,2G,,2 C,2G,,2 C,,2z2 |]

